X:35
%%scale .7
T:Poor Old Woman/ Jenny's Welcome
T:Poor Old Woman, The
K:C
|:ed|c2 Bc AcBA|GEGA GABd|edcB ABcd|e2 A2 A2 ed|
c2 Bc AcBA|GEGA GABd|eg^fa gedB|BAAG A2:|:
e^f|g2 ga gedB|BAAG G2 e^f|g2 ga gedc|BcAB G2 GB|
AEAB AcBA|GEGA GABd|eg^fa gedB|BAAG A2:|
T: Jenny's Welcome To Charlie
R: reel
M: 4/4
L: 1/8
K: Ador
|D2 AB AGEF|GEcE dEcE|D2 AB AGEF|GEcE EDCE|
|D2 AB AGEF|GEcE d2 cd|eddc AGEF|1 GEcE EDCE:|2 GEcE EDD2|
|:f3 d efed|^cA (3AAA cA (3AAA|f2 fd edcd|eaag edde|
|~f3 d efed|^cAAB =c2 cd|eddc AGEF|GEcE EDD2:|
|:a2 ab agef|~g3 a gedg|eaag aged|eaag edde|
|~a3 b agef|~g3 a gedB|A2 (3Bcd eddc|AcGE EDD2:|
|:Add^c defd|AccB cdec|Add^c d2 cd|eaag edd^c|
|~d3 e dcAB|~c3 d cAGE|D2 (3EFG Addc|1 AcGE EDD2:|2 AcGE EDCE||
%%Scale .8

